public/editor-src/editor/icons/fa/hospital.svg

<svg xmlns="http://www.w3.org/2000/svg" viewBox="0 0 640 512"><!--! Font Awesome Free 6.4.0 by @fontawesome - https://fontawesome.com License - https://fontawesome.com/license/free (Icons: CC BY 4.0, Fonts: SIL OFL 1.1, Code: MIT License) Copyright 2023 Fonticons, Inc.--><path d="M232 0c-39.8 0-72 32.2-72 72v8H72c-39.8 0-72 32.2-72 72v288c0 39.8 32.2 72 72 72H568c39.8 0 72-32.2 72-72V152c0-39.8-32.2-72-72-72h-88v-8c0-39.8-32.2-72-72-72H232zm248 128h88c13.3 0 24 10.7 24 24v40h-56c-13.3 0-24 10.7-24 24s10.7 24 24 24h56v48h-56c-13.3 0-24 10.7-24 24s10.7 24 24 24h56v104c0 13.3-10.7 24-24 24h-88V128zm-408 0h88v336H72c-13.2 0-24-10.7-24-24V336h56c13.3 0 24-10.7 24-24s-10.7-24-24-24H48v-48h56c13.3 0 24-10.7 24-24s-10.7-24-24-24H48v-40c0-13.3 10.7-24 24-24zm136-56c0-13.3 10.7-24 24-24h176c13.3 0 24 10.7 24 24v392h-64v-64c0-26.5-21.5-48-48-48s-48 21.5-48 48v64h-64V72zm88 24v24h-24c-8.8 0-16 7.2-16 16v16c0 8.8 7.2 16 16 16h24v24c0 8.8 7.2 16 16 16h16c8.8 0 16-7.2 16-16v-24h24c8.8 0 16-7.2 16-16v-16c0-8.8-7.2-16-16-16h-24V96c0-8.8-7.2-16-16-16h-16c-8.8 0-16 7.2-16 16z"/></svg>

<svg xmlns="http://www.w3.org/2000/svg" viewBox="0 0 640 512"><!--! Font Awesome Free 6.4.0 by @fontawesome - https://fontawesome.com License - https://fontawesome.com/license/free (Icons: CC BY 4.0, Fonts: SIL OFL 1.1, Code: MIT License) Copyright 2023 Fonticons, Inc. --><path d="M232 0c-39.8 0-72 32.2-72 72v8H72C32.2 80 0 112.2 0 152V440c0 39.8 32.2 72 72 72h.2 .2 .2 .2 .2H73h.2 .2 .2 .2 .2 .2 .2 .2 .2 .2H75h.2 .2 .2 .2 .2 .2 .2 .2 .2 .2H77h.2 .2 .2 .2 .2 .2 .2 .2 .2 .2H79h.2 .2 .2 .2 .2 .2 .2 .2 .2 .2 .2 .2 .2 .2 .2H82h.2 .2 .2 .2 .2 .2 .2 .2 .2 .2 .2 .2 .2 .2 .2H85h.2 .2 .2 .2H86h.2 .2 .2 .2H87h.2 .2 .2 .2H88h.2 .2 .2 .2 .2 .2 .2 .2 .2 .2 .2 .2 .2 .2 .2 .2 .2 .2 .2 .2 .2 .2 .2 .2 .2 .2 .2 .2 .2 .2 .2 .2 .2 .2 .2 .2 .2 .2 .2 .2 .2 .2 .2 .2 .2 .2 .2 .2 .2H98h.2 .2 .2 .2H99h.2 .2 .2 .2 .2 .2 .2 .2 .2 .2 .2 .2 .2 .2 .2 .2 .2 .2 .2 .2 .2 .2 .2 .2 .2 .2 .2 .2 .2 .2 .2 .2 .2 .2 .2 .2 .2 .2 .2 .2 .2 .2 .2 .2 .2 .2 .2 .2 .2 .2 .2 .2 .2 .2 .2 .2 .2 .2 .2 .2 .2 .2 .2 .2 .2 .2 .2 .2 .2 .2 .2 .2 .2 .2 .2 .2 .2 .2 .2 .2 .2 .2 .2 .2 .2 .2 .2 .2 .2 .2 .2 .2 .2 .2 .2 .2 .2 .2 .2 .2 .2 .2 .2 .2 .2 .2 .2 .2 .2 .2 .2 .2 .2 .2 .2 .2 .2 .2 .2 .2 .2 .2 .2 .2 .2 .2 .2 .2 .2 .2 .2 .2 .2 .2 .2 .2 .2 .2 .2 .2 .2 .2 .2 .2 .2 .2 .2 .2 .2 .2 .2 .2 .2 .2 .2 .2 .2 .2 .2 .2 .2 .2 .2 .2 .2 .2 .2 .2 .2 .2 .2 .2 .2 .2 .2 .2 .2 .2 .2 .2 .2 .2 .2 .2 .2 .2 .2 .2 .2 .2 .2 .2 .2 .2 .2 .2 .2 .2 .2 .2 .2 .2 .2 .2 .2 .2 .2 .2 .2 .2 .2 .2 .2 .2 .2 .2 .2 .2 .2 .2 .2 .2 .2 .2 .2 .2 .2 .2 .2 .2 .2 .2 .2 .2 .2 .2 .2 .2 .2 .2 .2 .2 .2 .2 .2 .2 .2 .2 .2 .2 .2 .2 .2 .2 .2 .2 .2 .2 .2 .2 .2 .2 .2 .2 .2 .2 .2 .2 .2 .2 .2 .2 .2 .2 .2 .2 .2 .2 .2 .2 .2 .2 .2 .2 .2 .2 .2 .2 .2 .2 .2 .2 .2 .2 .2 .2 .2 .2 .2 .2 .2 .2 .2 .2 .2 .2 .2 .2 .2 .2 .2 .2 .2 .2 .2 .2 .2 .2 .2 .2 .2 .2 .2 .2 .2 .2 .2 .2 .2 .2 .2 .2 .2 .2 .2 .2 .2 .2 .2 .2 .2 .2 .2 .2 .2 .2 .2 .2 .2 .2 .2 .2 .2 .2 .2 .2 .2 .2 .2 .2 .2 .2 .2 .2 .2 .2 .2 .2 .2 .2 .2v0H456h8v0H568c39.8 0 72-32.2 72-72V152c0-39.8-32.2-72-72-72H480V72c0-39.8-32.2-72-72-72H232zM480 128h88c13.3 0 24 10.7 24 24v40H536c-13.3 0-24 10.7-24 24s10.7 24 24 24h56v48H536c-13.3 0-24 10.7-24 24s10.7 24 24 24h56V440c0 13.3-10.7 24-24 24H480V336 128zM72 128h88V464h-.1-.2-.2-.2H159h-.2-.2-.2H158h-.2-.2-.2-.2-.2-.2-.2-.2-.2-.2-.2-.2-.2-.2-.2-.2H154h-.2-.2-.2H153h-.2-.2-.2-.2-.2-.2-.2-.2-.2-.2-.2-.2H150h-.2-.2-.2H149h-.2-.2-.2-.2-.2-.2-.2-.2-.2-.2-.2-.2H146h-.2-.2-.2H145h-.2-.2-.2-.2-.2-.2-.2-.2-.2-.2-.2-.2H142h-.2-.2-.2-.2-.2-.2-.2-.2-.2-.2-.2-.2H139h-.2-.2-.2-.2-.2-.2-.2-.2-.2-.2-.2-.2H136h-.2-.2-.2-.2-.2-.2-.2-.2-.2-.2-.2-.2H133h-.2-.2-.2-.2-.2-.2-.2-.2H131h-.2-.2-.2-.2-.2-.2-.2-.2-.2-.2-.2-.2H128h-.2-.2-.2-.2-.2-.2-.2-.2H126h-.2-.2-.2-.2-.2-.2-.2-.2H124h-.2-.2-.2-.2-.2-.2-.2-.2H122h-.2-.2-.2-.2-.2-.2-.2-.2H120h-.2-.2-.2-.2-.2-.2-.2-.2H118h-.2-.2-.2-.2-.2-.2-.2-.2H116h-.2-.2-.2-.2-.2-.2-.2-.2H114h-.2-.2-.2-.2-.2-.2-.2-.2-.2-.2-.2-.2-.2H111h-.2-.2-.2-.2-.2-.2-.2-.2-.2-.2-.2-.2-.2H108h-.2-.2-.2-.2-.2-.2-.2-.2-.2-.2-.2-.2-.2H105h-.2-.2-.2-.2H104h-.2-.2-.2-.2-.2-.2-.2-.2-.2-.2-.2-.2-.2-.2-.2-.2-.2-.2H100h-.2-.2-.2-.2H99h-.2-.2-.2-.2H98h-.2-.2-.2-.2-.2-.2-.2-.2-.2-.2-.2-.2-.2-.2-.2-.2-.2-.2-.2-.2-.2-.2-.2-.2-.2-.2-.2-.2-.2-.2-.2-.2-.2-.2-.2-.2-.2-.2-.2-.2-.2-.2-.2-.2-.2-.2-.2-.2-.2H88h-.2-.2-.2-.2H87h-.2-.2-.2-.2H86h-.2-.2-.2-.2H85h-.2-.2-.2-.2-.2-.2-.2-.2-.2-.2-.2-.2-.2-.2-.2H82h-.2-.2-.2-.2-.2-.2-.2-.2-.2-.2-.2-.2-.2-.2-.2H79h-.2-.2-.2-.2-.2-.2-.2-.2-.2-.2H77h-.2-.2-.2-.2-.2-.2-.2-.2-.2-.2H75h-.2-.2-.2-.2-.2-.2-.2-.2-.2-.2H73h-.2-.2-.2-.2-.2H72c-13.2 0-24-10.7-24-24V336h56c13.3 0 24-10.7 24-24s-10.7-24-24-24H48V240h56c13.3 0 24-10.7 24-24s-10.7-24-24-24H48V152c0-13.3 10.7-24 24-24zM208 72c0-13.3 10.7-24 24-24H408c13.3 0 24 10.7 24 24V336 464H368V400c0-26.5-21.5-48-48-48s-48 21.5-48 48v64H208V72zm88 24v24H272c-8.8 0-16 7.2-16 16v16c0 8.8 7.2 16 16 16h24v24c0 8.8 7.2 16 16 16h16c8.8 0 16-7.2 16-16V168h24c8.8 0 16-7.2 16-16V136c0-8.8-7.2-16-16-16H344V96c0-8.8-7.2-16-16-16H312c-8.8 0-16 7.2-16 16z"/></svg>
